X:1
T:Praeambulum
T:Praeambulum
T:(Prelude) BWV 927
T:Johann Sebastian Bach
C:Johann Sebastian Bach
%%score 1 2 3 4
L:1/8
M:4/4
K:F
V:1 treble 
V:2 treble 
V:3 bass 
V:4 bass 
V:1
 z/ c/A/c/ F/c/A/c/ F/d/B/d/ F/d/B/d/ | x4 x2 F/ x/ x | z fff z fff | z gbg [fa]2 z2 | x8 | x8 | %6
 F/d/c/d/ G/d/B/d/ G/c/B/c/ F/c/A/c/ | F/B/A/B/ C/B/G/B/ C/A/F/A/ C/A/F/A/ | %8
 D/A/F/A/ D/F/A/c/ D/B/G/B/ D/B/G/B/ | E/B/G/B/ E/G/B/d/ F/c/A/c/ f/c/A/F/ | %10
 z/ B/G/B/ e/B/G/E/ z/ A/F/A/ d/A/F/D/ | z/ G/E/G/ c/G/E/C/ z/ F/D/F/ G/A/B/D/ | %12
 G/A/B/E/ F/G/A/C/ D/F/A/c/ B/A/G/B/ | x4 b2 z a | z/ g/ z/ f/ z/ f/ z/ e/ f4 |] %15
V:2
 x8 | G/e/B/e/ G/e/B/e/ f/c/A/c/ x2 | z cAc z dBd | z eee c2 z2 | %4
 z/ a/f/a/ c/a/f/a/ c/g/f/g/ c/g/e/g/ | A/f/e/f/ A/f/d/f/ A/e/d/e/ A/e/c/e/ | x8 | x8 | x8 | x8 | %10
 x8 | x8 | x8 | d/f/e/d/ c/e/g/b/ [ceg]2 z [cf] | B/e/A/d/ G/c/G/B/ [FAc]4 |] %15
V:3
 A,CA,C z DB,D | z G,B,G, A,2 z/ C/A,/C/ | x8 | x4 x2 F,/C,/A,,/C,/ | F,,G,,A,,B,, C,D,E,C, | x8 | %6
 x8 | x4 F,/C,/A,,/C,/ F,,/A,,/C,/F,/ | x4 x2 G,,/B,,/D,/G,/ | x8 | x8 | E,C,E,C, D,C,B,,G,, | x8 | %13
 z4 E,,2 z F,, | D,B,,C,C,, F,,4 |] %15
V:4
 F,F,F,F, z F,F,F, | z F,F,F, F,2 z2 | F,/C/A,/C/ F,/C/A,/C/ F,/D/B,/D/ F,/D/B,/D/ | %3
 G,/E/B,/E/ G,/E/B,/E/ F/C/A,/C/ x2 | x8 | D,E,F,G, A,B,CA, | B,A,G,F, E,C,F,E, | D,G,E,C, x4 | %8
 B,,B, z A, G,/D,/B,,/D,/ x2 | C,CzB, A,C,A,C, | G,C,G,C, F,C,F,C, | x8 | E,C,A,F, B,2 z2 | x8 | %14
 x8 |] %15

